Otagle3/Assets/ikonySvG/Style.svg

<svg id="SVGRoot" width="205" height="203" version="1.1" viewBox="0 0 205 203" xmlns="http://www.w3.org/2000/svg">
 <g transform="translate(0,2)">
  <g transform="matrix(3.7795 0 0 3.7795 10.171 -6.7758)">
   <g transform="translate(-1.0884 -121.69)">
    <g transform="translate(1.6608 -59.209)">
     <g transform="translate(-.6443 -59.335)">
      <g transform="translate(144.82 343.03)">
       <rect x="-146.61" y="-101.21" width="52.917" height="52.917" fill="#0082b4" stroke="#000" stroke-linecap="round" stroke-width=".5" style="paint-order:fill markers stroke"/>
       <text x="-119.76649" y="-52.122395" fill="#ffffff" font-family="voestalpine" font-size="6.35px" letter-spacing="0px" stroke-width=".26458" word-spacing="0px" style="line-height:1.25" xml:space="preserve"><tspan x="-119.76649" y="-52.122395" fill="#ffffff" font-family="sans-serif" font-size="4.9389px" stroke-width=".26458" text-align="center" text-anchor="middle">STYLE</tspan></text>
       <g transform="matrix(.32995 0 0 .32995 -135.84 -95.615)" fill="#fff">
        <path d="m92 89c0 1.657-1.343 3-3 3h-63c-1.657 0-3-1.343-3-3s1.343-3 3-3h63c1.657 0 3 1.343 3 3z"/>
        <path d="m83 71c1.657 0 3 1.343 3 3s-1.343 3-3 3h-45c-1.657 0-3-1.343-3-3s1.343-3 3-3z"/>
        <path d="m85.953 8.023c-53.752-.57-74.953 14.532-74.953 62.977 0 .064.032.117.036.179-1.9 5.764-2.932 11.704-3.036 17.771-.026 1.655 1.292 3.021 2.95 3.05h.05c1.635 0 2.971-1.31 3-2.95.151-8.86 2.425-16.86 6.078-24.05 9.154-.076 22.011 1.125 33.939-3.179 3.763-1.358 1.808-6.478-2.033-5.643-7.797 1.697-18.925 1.41-26.284-.178 1.747-2.435 2.206-3.114 4.856-6.015 34.194.015 56.279-5.944 61.356-34.968.633-3.633-2.223-6.957-5.959-6.994zm-21.299 10.369c-17.082 7.385-31.109 17.823-42.083 31.316-.528.649-1.55.077-1.266-.711 6.476-17.962 19.568-29.731 43.059-31.764.702-.061.936.88.29 1.159z"/>
       </g>
      </g>
     </g>
    </g>
   </g>
  </g>
 </g>
</svg>

<?xml version="1.0" encoding="UTF-8" standalone="no"?>
<svg
   xmlns:dc="http://purl.org/dc/elements/1.1/"
   xmlns:cc="http://creativecommons.org/ns#"
   xmlns:rdf="http://www.w3.org/1999/02/22-rdf-syntax-ns#"
   xmlns:svg="http://www.w3.org/2000/svg"
   xmlns="http://www.w3.org/2000/svg"
   id="svg47"
   version="1.1"
   viewBox="0 0 52.758294 52.758296"
   height="199.40143"
   width="199.40143">
  <defs
     id="defs42">
    <pattern
       id="EMFhbasepattern"
       patternUnits="userSpaceOnUse"
       width="6"
       height="6"
       x="0"
       y="0" />
    <marker
       style="overflow:visible"
       id="Arrow1Mend-5-0"
       refX="0"
       refY="0"
       orient="auto">
      <path
         transform="matrix(-0.4,0,0,-0.4,-4,0)"
         style="fill:#000000;fill-opacity:1;fill-rule:evenodd;stroke:#000000;stroke-width:1.00000003pt;stroke-opacity:1"
         d="M 0,0 5,-5 -12.5,0 5,5 Z"
         id="path1146-3-3" />
    </marker>
    <marker
       style="overflow:visible"
       id="Arrow1Mend-5-3"
       refX="0"
       refY="0"
       orient="auto">
      <path
         transform="matrix(-0.4,0,0,-0.4,-4,0)"
         style="fill:#000000;fill-opacity:1;fill-rule:evenodd;stroke:#000000;stroke-width:1.00000003pt;stroke-opacity:1"
         d="M 0,0 5,-5 -12.5,0 5,5 Z"
         id="path1146-3-9" />
    </marker>
    <marker
       orient="auto"
       refY="0"
       refX="0"
       id="Arrow1Mend-5-0-4"
       style="overflow:visible">
      <path
         id="path1146-3-3-8"
         d="M 0,0 5,-5 -12.5,0 5,5 Z"
         style="fill:#ffffff;fill-opacity:1;fill-rule:evenodd;stroke:#ffffff;stroke-width:1.00000003pt;stroke-opacity:1"
         transform="matrix(-0.4,0,0,-0.4,-4,0)" />
    </marker>
    <marker
       orient="auto"
       refY="0"
       refX="0"
       id="Arrow1Mend-5-3-8"
       style="overflow:visible">
      <path
         id="path1146-3-9-5"
         d="M 0,0 5,-5 -12.5,0 5,5 Z"
         style="fill:#ffffff;fill-opacity:1;fill-rule:evenodd;stroke:#ffffff;stroke-width:1.00000003pt;stroke-opacity:1"
         transform="matrix(-0.4,0,0,-0.4,-4,0)" />
    </marker>
    <marker
       style="overflow:visible"
       id="Arrow1Mend"
       refX="0"
       refY="0"
       orient="auto">
      <path
         transform="matrix(-0.4,0,0,-0.4,-4,0)"
         style="fill:#000000;fill-opacity:1;fill-rule:evenodd;stroke:#000000;stroke-width:1.00000003pt;stroke-opacity:1"
         d="M 0,0 5,-5 -12.5,0 5,5 Z"
         id="path1146" />
    </marker>
    <marker
       orient="auto"
       refY="0"
       refX="0"
       id="Arrow1Mend-5"
       style="overflow:visible">
      <path
         id="path1146-3"
         d="M 0,0 5,-5 -12.5,0 5,5 Z"
         style="fill:#ffffff;fill-opacity:1;fill-rule:evenodd;stroke:#ffffff;stroke-width:1.00000003pt;stroke-opacity:1"
         transform="matrix(-0.4,0,0,-0.4,-4,0)" />
    </marker>
    <marker
       style="overflow:visible"
       id="Arrow1Mstart"
       refX="0"
       refY="0"
       orient="auto">
      <path
         transform="matrix(0.4,0,0,0.4,4,0)"
         style="fill:#000000;fill-opacity:1;fill-rule:evenodd;stroke:#000000;stroke-width:1.00000003pt;stroke-opacity:1"
         d="M 0,0 5,-5 -12.5,0 5,5 Z"
         id="path1143" />
    </marker>
    <marker
       orient="auto"
       refY="0"
       refX="0"
       id="Arrow1Mstart-1"
       style="overflow:visible">
      <path
         id="path1143-7"
         d="M 0,0 5,-5 -12.5,0 5,5 Z"
         style="fill:#ffffff;fill-opacity:1;fill-rule:evenodd;stroke:#ffffff;stroke-width:1.00000003pt;stroke-opacity:1"
         transform="matrix(0.4,0,0,0.4,4,0)" />
    </marker>
    <marker
       style="overflow:visible"
       id="Arrow1Lend"
       refX="0"
       refY="0"
       orient="auto">
      <path
         transform="matrix(-0.8,0,0,-0.8,-10,0)"
         style="fill:#000000;fill-opacity:1;fill-rule:evenodd;stroke:#000000;stroke-width:1.00000003pt;stroke-opacity:1"
         d="M 0,0 5,-5 -12.5,0 5,5 Z"
         id="path1140" />
    </marker>
    <marker
       style="overflow:visible"
       id="Arrow1Lstart"
       refX="0"
       refY="0"
       orient="auto">
      <path
         transform="matrix(0.8,0,0,0.8,10,0)"
         style="fill:#000000;fill-opacity:1;fill-rule:evenodd;stroke:#000000;stroke-width:1.00000003pt;stroke-opacity:1"
         d="M 0,0 5,-5 -12.5,0 5,5 Z"
         id="path1137" />
    </marker>
    <marker
       orient="auto"
       refY="0"
       refX="0"
       id="Arrow1Lend-5"
       style="overflow:visible">
      <path
         id="path1140-4"
         d="M 0,0 5,-5 -12.5,0 5,5 Z"
         style="fill:#ffffff;fill-opacity:1;fill-rule:evenodd;stroke:#ffffff;stroke-width:1.00000003pt;stroke-opacity:1"
         transform="matrix(-0.8,0,0,-0.8,-10,0)" />
    </marker>
    <marker
       orient="auto"
       refY="0"
       refX="0"
       id="Arrow1Lstart-93"
       style="overflow:visible">
      <path
         id="path1137-7"
         d="M 0,0 5,-5 -12.5,0 5,5 Z"
         style="fill:#ffffff;fill-opacity:1;fill-rule:evenodd;stroke:#ffffff;stroke-width:1.00000003pt;stroke-opacity:1"
         transform="matrix(0.8,0,0,0.8,10,0)" />
    </marker>
  </defs>
  <metadata
     id="metadata45">
    <rdf:RDF>
      <cc:Work
         rdf:about="">
        <dc:format>image/svg+xml</dc:format>
        <dc:type
           rdf:resource="http://purl.org/dc/dcmitype/StillImage" />
        <dc:title></dc:title>
      </cc:Work>
    </rdf:RDF>
  </metadata>
  <g
     id="g8556"
     transform="translate(49.836509,-375.23204)">
    <g
       id="g5305">
      <text
         id="text898-7-3-6-8-3-3-0-66-7-8-8-0-8-3-4-2-6-22-3-3-4-7-0-2-6-2"
         y="425.61624"
         x="-23.21401"
         style="font-size:6.3499999px;line-height:0.94999999;font-family:voestalpine;-inkscape-font-specification:voestalpine;text-align:center;letter-spacing:0px;word-spacing:0px;text-anchor:middle;fill:#ffffff;fill-opacity:1;stroke-width:0.26458299"
         xml:space="preserve"><tspan
           style="font-size:6.3499999px;text-align:center;text-anchor:middle;fill:#ffffff;fill-opacity:1;stroke-width:0.26458299"
           y="425.61624"
           x="-23.21401"
           id="tspan3280-8-2-3-8">Pokaż nagłówek</tspan></text>
      <g
         id="g3340"
         transform="translate(96.734391,476.83581)">
        <rect
           y="-101.21398"
           x="-146.60872"
           height="52.916668"
           width="52.916668"
           id="rect833-4-0"
           style="fill:#0082b4;fill-opacity:1;stroke:#000000;stroke-width:0.49999902;stroke-linecap:round;stroke-miterlimit:4;stroke-dasharray:none;stroke-opacity:1;paint-order:fill markers stroke" />
        <text
           id="text983-1-9"
           y="-50.244492"
           x="-119.76649"
           style="font-size:6.3499999px;line-height:1.25;font-family:voestalpine;-inkscape-font-specification:voestalpine;letter-spacing:0px;word-spacing:0px;fill:#ffffff;fill-opacity:1;stroke-width:0.26458299"
           xml:space="preserve"><tspan
             style="font-size:7.76110983px;text-align:center;text-anchor:middle;fill:#ffffff;fill-opacity:1;stroke-width:0.26458299"
             y="-50.244492"
             x="-119.76649"
             id="tspan1031-81">STYLE</tspan></text>
        <g
           transform="matrix(0.32994889,0,0,0.32994889,-135.84033,-95.614897)"
           id="g1904"
           style="fill:#ffffff;fill-opacity:1">
          <path
             style="fill:#ffffff;fill-opacity:1"
             d="m 92,89 c 0,1.657 -1.343,3 -3,3 H 26 c -1.657,0 -3,-1.343 -3,-3 0,-1.657 1.343,-3 3,-3 h 63 c 1.657,0 3,1.343 3,3 z"
             id="path1887" />
          <path
             style="fill:#ffffff;fill-opacity:1"
             d="m 83,71 c 1.657,0 3,1.343 3,3 0,1.657 -1.343,3 -3,3 H 38 c -1.657,0 -3,-1.343 -3,-3 0,-1.657 1.343,-3 3,-3 z"
             id="path1889" />
          <path
             style="fill:#ffffff;fill-opacity:1"
             d="M 85.953,8.023 C 32.201,7.453 11,22.555 11,71 c 0,0.064 0.032,0.117 0.036,0.179 C 9.136,76.943 8.104,82.883 8,88.95 c -0.026,1.655 1.292,3.021 2.95,3.05 0.018,0 0.032,0 0.05,0 1.635,0 2.971,-1.31 3,-2.95 0.151,-8.86 2.425,-16.86 6.078,-24.05 9.154,-0.076 22.011,1.125 33.939,-3.179 3.763,-1.358 1.808,-6.478 -2.033,-5.643 C 44.187,57.875 33.059,57.588 25.7,56 27.447,53.565 27.906,52.886 30.556,49.985 64.75,50 86.835,44.041 91.912,15.017 92.545,11.384 89.689,8.06 85.953,8.023 Z M 64.654,18.392 c -17.082,7.385 -31.109,17.823 -42.083,31.316 -0.528,0.649 -1.55,0.077 -1.266,-0.711 6.476,-17.962 19.568,-29.731 43.059,-31.764 0.702,-0.061 0.936,0.88 0.29,1.159 z"
             id="path1891" />
        </g>
      </g>
    </g>
  </g>
</svg>
